X:1
T:Gravel Walk, The
R:reel
M:4/4
L:1/8
K:Ador
A2eA BAeA|A2eA dBGB|A2eA (3Bcd ef|gfge dBGB:|
A2aA gAfA|A2eA BAGB|1 A2aA gAfa|gedc BAGB:|2 ABcd efga|gedc BAGB|]
cAAG ~A3B|cA~A2 dBGB|cAAG A2ef|gedc BAGB:|
c2gc acgc|c2ge dBGB|c2gc acga|gedc BAGB|
c2gc acgc|c2ge dBGB|1 ABcd efga|gedc BAGB:|2 Aa~a2 agef|gfge dBGB|]
</abc>
